X: 1
T: Enlist For A Soldier
M: 2/4
L: 1/8
R: polka
K: Edor
B,2|:E2 EF | GF GA | B2 e2 | B2 Bc | d2 d2 | d2 F2 | AG FE | D2 F2|
E2 EF | GF GA | B2 e2 | B2 Bc | d2 F2 | A2 GF | E4 |1 E2 B,2 :|2 E2 B2 ||
e2 e2 | e2 fe | d2 B2 | B2 c2 | d2 d2 | d2 F2 | AG FE | D2 F2| E2 EF |
GF GA | B2 e2 | B2 Bc | d2 F2 | A2 GF | E4 |1 E2 B2 :|2 E2 B,2 ||
